static/img/kroki/b0636f93d12d772d3efe03303659a208.svg

<?xml version="1.0" encoding="us-ascii" standalone="no"?><svg xmlns="http://www.w3.org/2000/svg" xmlns:xlink="http://www.w3.org/1999/xlink" contentStyleType="text/css" height="374px" preserveAspectRatio="none" style="width:368px;height:374px;" version="1.1" viewBox="0 0 368 374" width="368px" zoomAndPan="magnify"><defs/><g><!--class azure_network_dns_zone--><g id="elem_azure_network_dns_zone"><rect codeLine="23" fill="#3D176E" height="39.7891" id="azure_network_dns_zone" rx="2.5" ry="2.5" style="stroke:#000D19;stroke-width:0.5;" width="253" x="37" y="328.58"/><ellipse cx="52" cy="348.4745" fill="#ADD1B2" rx="11" ry="11" style="stroke:#181818;stroke-width:1.0;"/><path d="M54.9688,354.1152 Q54.3906,354.412 53.75,354.5527 Q53.1094,354.7089 52.4063,354.7089 Q49.9063,354.7089 48.5781,353.0683 Q47.2656,351.412 47.2656,348.287 Q47.2656,345.162 48.5781,343.5058 Q49.9063,341.8495 52.4063,341.8495 Q53.1094,341.8495 53.75,342.0058 Q54.4063,342.162 54.9688,342.4589 L54.9688,345.1777 Q54.3438,344.5995 53.75,344.3339 Q53.1563,344.0527 52.5313,344.0527 Q51.1875,344.0527 50.5,345.1308 Q49.8125,346.1933 49.8125,348.287 Q49.8125,350.3808 50.5,351.4589 Q51.1875,352.5214 52.5313,352.5214 Q53.1563,352.5214 53.75,352.2558 Q54.3438,351.9745 54.9688,351.3964 L54.9688,354.1152 Z " fill="#000000"/><text fill="#D9B8FF" font-family="Helvetica" font-size="17" lengthAdjust="spacing" textLength="211" x="71" y="354.3598">azure_network_dns_zone</text></g><!--class dns_zone--><g id="elem_dns_zone"><rect codeLine="26" fill="#3D176E" height="39.7891" id="dns_zone" rx="2.5" ry="2.5" style="stroke:#000D19;stroke-width:0.5;" width="119" x="7" y="167.79"/><ellipse cx="22" cy="187.6845" fill="#ADD1B2" rx="11" ry="11" style="stroke:#181818;stroke-width:1.0;"/><path d="M24.9688,193.3252 Q24.3906,193.622 23.75,193.7627 Q23.1094,193.9189 22.4063,193.9189 Q19.9063,193.9189 18.5781,192.2783 Q17.2656,190.622 17.2656,187.497 Q17.2656,184.372 18.5781,182.7158 Q19.9063,181.0595 22.4063,181.0595 Q23.1094,181.0595 23.75,181.2158 Q24.4063,181.372 24.9688,181.6689 L24.9688,184.3877 Q24.3438,183.8095 23.75,183.5439 Q23.1563,183.2627 22.5313,183.2627 Q21.1875,183.2627 20.5,184.3408 Q19.8125,185.4033 19.8125,187.497 Q19.8125,189.5908 20.5,190.6689 Q21.1875,191.7314 22.5313,191.7314 Q23.1563,191.7314 23.75,191.4658 Q24.3438,191.1845 24.9688,190.6064 L24.9688,193.3252 Z " fill="#000000"/><text fill="#D9B8FF" font-family="Helvetica" font-size="17" lengthAdjust="spacing" textLength="77" x="41" y="193.5698">dns_zone</text></g><!--class microsoft_resource--><g id="elem_microsoft_resource"><rect codeLine="29" fill="#3D176E" height="39.7891" id="microsoft_resource" rx="2.5" ry="2.5" style="stroke:#000D19;stroke-width:0.5;" width="200" x="161.5" y="167.79"/><ellipse cx="176.5" cy="187.6845" fill="#ADD1B2" rx="11" ry="11" style="stroke:#181818;stroke-width:1.0;"/><path d="M179.4688,193.3252 Q178.8906,193.622 178.25,193.7627 Q177.6094,193.9189 176.9063,193.9189 Q174.4063,193.9189 173.0781,192.2783 Q171.7656,190.622 171.7656,187.497 Q171.7656,184.372 173.0781,182.7158 Q174.4063,181.0595 176.9063,181.0595 Q177.6094,181.0595 178.25,181.2158 Q178.9063,181.372 179.4688,181.6689 L179.4688,184.3877 Q178.8438,183.8095 178.25,183.5439 Q177.6563,183.2627 177.0313,183.2627 Q175.6875,183.2627 175,184.3408 Q174.3125,185.4033 174.3125,187.497 Q174.3125,189.5908 175,190.6689 Q175.6875,191.7314 177.0313,191.7314 Q177.6563,191.7314 178.25,191.4658 Q178.8438,191.1845 179.4688,190.6064 L179.4688,193.3252 Z " fill="#000000"/><text fill="#D9B8FF" font-family="Helvetica" font-size="17" lengthAdjust="spacing" textLength="158" x="195.5" y="193.5698">microsoft_resource</text></g><!--class resource--><g id="elem_resource"><rect codeLine="32" fill="#3D176E" height="39.7891" id="resource" rx="2.5" ry="2.5" style="stroke:#000D19;stroke-width:0.5;" width="113" x="107" y="7"/><ellipse cx="122" cy="26.8945" fill="#ADD1B2" rx="11" ry="11" style="stroke:#181818;stroke-width:1.0;"/><path d="M124.9688,32.5352 Q124.3906,32.832 123.75,32.9727 Q123.1094,33.1289 122.4063,33.1289 Q119.9063,33.1289 118.5781,31.4883 Q117.2656,29.832 117.2656,26.707 Q117.2656,23.582 118.5781,21.9258 Q119.9063,20.2695 122.4063,20.2695 Q123.1094,20.2695 123.75,20.4258 Q124.4063,20.582 124.9688,20.8789 L124.9688,23.5977 Q124.3438,23.0195 123.75,22.7539 Q123.1563,22.4727 122.5313,22.4727 Q121.1875,22.4727 120.5,23.5508 Q119.8125,24.6133 119.8125,26.707 Q119.8125,28.8008 120.5,29.8789 Q121.1875,30.9414 122.5313,30.9414 Q123.1563,30.9414 123.75,30.6758 Q124.3438,30.3945 124.9688,29.8164 L124.9688,32.5352 Z " fill="#000000"/><text fill="#D9B8FF" font-family="Helvetica" font-size="17" lengthAdjust="spacing" textLength="71" x="141" y="32.7798">resource</text></g><!--reverse link dns_zone to azure_network_dns_zone--><g id="link_dns_zone_azure_network_dns_zone"><path codeLine="35" d="M87.582,223.2016 C106.222,253.7216 133.09,297.69 151.76,328.25 " fill="none" id="dns_zone-backto-azure_network_dns_zone" style="stroke:#FFAF37;stroke-width:2.0;"/><polygon fill="none" points="78.2,207.84,82.4615,226.3289,92.7025,220.0742,78.2,207.84" style="stroke:#FFAF37;stroke-width:2.0;"/></g><!--reverse link microsoft_resource to azure_network_dns_zone--><g id="link_microsoft_resource_azure_network_dns_zone"><path codeLine="36" d="M240.225,223.1567 C221.385,253.6767 194.23,297.69 175.36,328.25 " fill="none" id="microsoft_resource-backto-azure_network_dns_zone" style="stroke:#FFAF37;stroke-width:2.0;"/><polygon fill="none" points="249.68,207.84,235.1194,220.0051,245.3306,226.3084,249.68,207.84" style="stroke:#FFAF37;stroke-width:2.0;"/></g><!--reverse link resource to dns_zone--><g id="link_resource_dns_zone"><path codeLine="37" d="M142.418,62.4116 C123.778,92.9316 96.91,136.9 78.24,167.46 " fill="none" id="resource-backto-dns_zone" style="stroke:#FFAF37;stroke-width:2.0;"/><polygon fill="none" points="151.8,47.05,137.2975,59.2842,147.5385,65.5389,151.8,47.05" style="stroke:#FFAF37;stroke-width:2.0;"/></g><!--reverse link resource to microsoft_resource--><g id="link_resource_microsoft_resource"><path codeLine="38" d="M184.775,62.3667 C203.615,92.8867 230.77,136.9 249.64,167.46 " fill="none" id="resource-backto-microsoft_resource" style="stroke:#FFAF37;stroke-width:2.0;"/><polygon fill="none" points="175.32,47.05,179.6694,65.5184,189.8806,59.2151,175.32,47.05" style="stroke:#FFAF37;stroke-width:2.0;"/></g><!--SRC=[XP3DRi8m48JlUGfBd952KHiYzG98LNj1LUazCl4Qh2JUQBrf16tVlKsXoEG7hZEVPsQzCme452NlHG751iW5BZEsb2GBCIV2UeavaXXfBVKqQfjFQFaci985Y6V8Fu1DAjl4-ywacGNdn9rdBMIQRGahguxnJDAwNmiiUzGobyxDcSbiAWPlZ8etCwtRP3jqD5MJw04w6982EY5X6Af9t4PkLbsz-qoipG74nF-q5J9qPdOg_gYhAnl26zavzDyVtFWgbJ9sA-uzxUsuYIpGXRxUIOLrGskPEx_6CH0WxqjOTgw2UAPqr0k_3C51sdoTa8UA8B70DLAMAEkI0reGdq7mVIBwjCAaX0ur9mGEAqelt4lj_FxnQpmU3nG6FObN-HOrf7TZWny0]--></g></svg>

<svg xmlns="http://www.w3.org/2000/svg" width="368" height="374" viewBox="0 0 368 374"><rect width="253" height="39.789" x="37" y="328.58" fill="#3D176E" rx="2.5" ry="2.5" style="stroke:#000d19;stroke-width:.5"/><circle cx="52" cy="348.474" r="11" fill="#ADD1B2" style="stroke:#181818;stroke-width:1"/><path d="M54.969 354.115q-.578.297-1.219.438-.64.156-1.344.156-2.5 0-3.828-1.64-1.312-1.657-1.312-4.782t1.312-4.781q1.328-1.656 3.828-1.656.703 0 1.344.156.656.156 1.219.453v2.719q-.625-.579-1.219-.844-.594-.281-1.219-.281-1.343 0-2.031 1.078-.687 1.062-.687 3.156t.687 3.172q.688 1.062 2.031 1.062.625 0 1.219-.265.594-.281 1.219-.86z"/><text x="71" y="354.36" fill="#D9B8FF" font-family="Helvetica" font-size="17" textLength="211">azure_network_dns_zone</text><rect width="119" height="39.789" x="7" y="167.79" fill="#3D176E" rx="2.5" ry="2.5" style="stroke:#000d19;stroke-width:.5"/><circle cx="22" cy="187.685" r="11" fill="#ADD1B2" style="stroke:#181818;stroke-width:1"/><path d="M24.969 193.325q-.578.297-1.219.438-.64.156-1.344.156-2.5 0-3.828-1.64-1.312-1.657-1.312-4.782t1.312-4.781q1.328-1.656 3.828-1.656.703 0 1.344.156.656.156 1.219.453v2.719q-.625-.578-1.219-.844-.594-.281-1.219-.281-1.343 0-2.031 1.078-.687 1.062-.687 3.156t.687 3.172q.688 1.062 2.031 1.062.625 0 1.219-.265.594-.281 1.219-.86z"/><text x="41" y="193.57" fill="#D9B8FF" font-family="Helvetica" font-size="17" textLength="77">dns_zone</text><rect width="200" height="39.789" x="161.5" y="167.79" fill="#3D176E" rx="2.5" ry="2.5" style="stroke:#000d19;stroke-width:.5"/><circle cx="176.5" cy="187.685" r="11" fill="#ADD1B2" style="stroke:#181818;stroke-width:1"/><path d="M179.469 193.325q-.578.297-1.219.438-.64.156-1.344.156-2.5 0-3.828-1.64-1.312-1.657-1.312-4.782t1.312-4.781q1.328-1.656 3.828-1.656.703 0 1.344.156.656.156 1.219.453v2.719q-.625-.578-1.219-.844-.594-.281-1.219-.281-1.344 0-2.031 1.078-.687 1.062-.687 3.156t.687 3.172q.688 1.062 2.031 1.062.625 0 1.219-.265.594-.281 1.219-.86z"/><text x="195.5" y="193.57" fill="#D9B8FF" font-family="Helvetica" font-size="17" textLength="158">microsoft_resource</text><rect width="113" height="39.789" x="107" y="7" fill="#3D176E" rx="2.5" ry="2.5" style="stroke:#000d19;stroke-width:.5"/><circle cx="122" cy="26.895" r="11" fill="#ADD1B2" style="stroke:#181818;stroke-width:1"/><path d="M124.969 32.535q-.578.297-1.219.438-.64.156-1.344.156-2.5 0-3.828-1.64-1.312-1.657-1.312-4.782t1.312-4.781q1.328-1.656 3.828-1.656.703 0 1.344.156.656.156 1.219.453v2.719q-.625-.578-1.219-.844-.594-.281-1.219-.281-1.344 0-2.031 1.078-.687 1.062-.687 3.156t.687 3.172q.688 1.062 2.031 1.062.625 0 1.219-.265.594-.281 1.219-.86z"/><text x="141" y="32.78" fill="#D9B8FF" font-family="Helvetica" font-size="17" textLength="71">resource</text><path fill="none" d="M87.582 223.202c18.64 30.52 45.508 74.488 64.178 105.048M78.2 207.84l4.261 18.489 10.242-6.255zm162.025 15.317c-18.84 30.52-45.995 74.533-64.865 105.093m74.32-120.41-14.56 12.165 10.21 6.303zM142.418 62.412C123.778 92.932 96.91 136.9 78.24 167.46M151.8 47.05l-14.502 12.234 10.24 6.255zm32.975 15.317c18.84 30.52 45.995 74.533 64.865 105.093M175.32 47.05l4.35 18.468 10.21-6.303z" style="stroke:#ffaf37;stroke-width:2"/></svg>
